X: 559
T:Miss Cruickshank's Reel
T:Miss Hopkins Reel (1781)
S:William Marshall, 1822
M:C|
L:1/8
N:Posted to the woodenflute mailing list, July 2002
R:reel
Z:Unknown
K:A
N:transposed from B flat for comparison with Put Me in the Big Chest
EFAc d2df|ecBA BAFA|EFAc d2df|ecBc A/A/A A2:|
fgag fedc|BABc AFFe|fgag fedc|BABc A/A/A A2 |
fgag fedc|BABc AFFA|EFAB cdef|ecBc A/A/A A2|]
<end>
<start>
